Gruvbox-Plus-Dark/devices/16/wiimotedev.svg

<svg width="16" height="16" style="isolation:isolate" version="1.1" viewBox="0 0 16 16" xmlns="http://www.w3.org/2000/svg">
  <defs>
    <style type="text/css">.ColorScheme-Text { color:#ebdbb2; } .ColorScheme-Highlight { color:#458588; }</style>
  </defs>
  <path class="ColorScheme-Text" d="m11.82 0c-0.176 6e-3 -0.313 0.154-0.31 0.33 4e-3 0.173 0.146 0.311 0.32 0.309h9e-3c0.042-5e-3 1.163-5e-3 2.316 1.178 1.16 1.189 1.188 2.325 1.188 2.336 0 0.176 0.143 0.319 0.319 0.319 0.177 0 0.32-0.143 0.32-0.319 0-0.057-0.015-1.388-1.368-2.775-1.361-1.395-2.732-1.381-2.794-1.378zm0.01 1.917c-0.175 0-0.317 0.145-0.32 0.319-2e-3 0.175 0.145 0.316 0.32 0.32 0.021 0 0.52 0.021 1.047 0.549 0.528 0.527 0.55 1.03 0.55 1.048 0 0.176 0.143 0.319 0.319 0.319s0.319-0.143 0.319-0.319c0-0.032-5e-3 -0.784-0.728-1.508-0.724-0.723-1.476-0.728-1.507-0.728zm-2.645 0.01c-0.358-3e-3 -0.704 0.129-0.969 0.369l-7.825 7.855c-0.508 0.509-0.512 1.342 0 1.896l3.584 3.574c0.246 0.245 0.58 0.382 0.928 0.379 0.356-1e-3 0.698-0.136 0.958-0.379l7.835-7.846c0.488-0.57 0.488-1.398-0.01-1.896l-3.583-3.583c-0.244-0.244-0.575-0.368-0.918-0.369zm-0.23 2.864c1.235 0 2.236 1.001 2.236 2.236s-1.001 2.236-2.236 2.236-2.236-1.001-2.236-2.236 1.001-2.236 2.236-2.236zm0 1.597c-0.353 0-0.639 0.286-0.639 0.639s0.286 0.639 0.639 0.639 0.639-0.286 0.639-0.639-0.286-0.639-0.639-0.639zm-4.152 2.236c0.353 0 0.639 0.286 0.639 0.639s-0.286 0.639-0.639 0.639-0.639-0.286-0.639-0.639 0.286-0.639 0.639-0.639zm-1.597 1.597c0.353 0 0.639 0.286 0.639 0.639s-0.286 0.639-0.639 0.639-0.639-0.286-0.639-0.639 0.286-0.639 0.639-0.639zm3.513 0.32c0.353 0 0.639 0.286 0.639 0.638 0 0.353-0.286 0.639-0.639 0.639s-0.639-0.286-0.639-0.639c0-0.352 0.286-0.638 0.639-0.638zm-1.597 1.596c0.353 0 0.639 0.286 0.639 0.639s-0.286 0.639-0.639 0.639-0.639-0.286-0.639-0.639 0.286-0.639 0.639-0.639z" fill="currentColor"/>
</svg>

<svg xmlns="http://www.w3.org/2000/svg" style="isolation:isolate" width="16" height="16" viewBox="0 0 16 16">
 <defs>
  <style id="current-color-scheme" type="text/css">
   .ColorScheme-Text { color:#ebdbb2; } .ColorScheme-Highlight { color:#458588; }
  </style>
  <linearGradient id="arrongin" x1="0%" x2="0%" y1="0%" y2="100%">
   <stop offset="0%" style="stop-color:#d79921; stop-opacity:1"/>
   <stop offset="100%" style="stop-color:#b57614; stop-opacity:1"/>
  </linearGradient>
  <linearGradient id="aurora" x1="0%" x2="0%" y1="0%" y2="100%">
   <stop offset="0%" style="stop-color:#83a598; stop-opacity:1"/>
   <stop offset="100%" style="stop-color:#b16286; stop-opacity:1"/>
  </linearGradient>
  <linearGradient id="fitdance" x1="0%" x2="0%" y1="0%" y2="100%">
   <stop offset="0%" style="stop-color:#8ec07c; stop-opacity:1"/>
   <stop offset="100%" style="stop-color:#458588; stop-opacity:1"/>
  </linearGradient>
  <linearGradient id="oomox" x1="0%" x2="0%" y1="0%" y2="100%">
   <stop offset="0%" style="stop-color:#458588; stop-opacity:1"/>
   <stop offset="100%" style="stop-color:#928374; stop-opacity:1"/>
  </linearGradient>
  <linearGradient id="rainblue" x1="0%" x2="0%" y1="0%" y2="100%">
   <stop offset="0%" style="stop-color:#b8bb26; stop-opacity:1"/>
   <stop offset="100%" style="stop-color:#076678; stop-opacity:1"/>
  </linearGradient>
  <linearGradient id="sunrise" x1="0%" x2="0%" y1="0%" y2="100%">
   <stop offset="0%" style="stop-color: #fe8019; stop-opacity:1"/>
   <stop offset="100%" style="stop-color: #fabd2f; stop-opacity:1"/>
  </linearGradient>
  <linearGradient id="telinkrin" x1="0%" x2="0%" y1="0%" y2="100%">
   <stop offset="0%" style="stop-color: #83a598; stop-opacity:1"/>
   <stop offset="100%" style="stop-color: #83a598; stop-opacity:1"/>
  </linearGradient>
  <linearGradient id="60spsycho" x1="0%" x2="0%" y1="0%" y2="100%">
   <stop offset="0%" style="stop-color: #fb4934; stop-opacity:1"/>
   <stop offset="25%" style="stop-color: #fabd2f; stop-opacity:1"/>
   <stop offset="50%" style="stop-color: #fe8019; stop-opacity:1"/>
   <stop offset="100%" style="stop-color: #689d6a; stop-opacity:1"/>
  </linearGradient>
  <linearGradient id="90ssummer" x1="0%" x2="0%" y1="0%" y2="100%">
   <stop offset="0%" style="stop-color: #b16286; stop-opacity:1"/>
   <stop offset="20%" style="stop-color: #8ec07c; stop-opacity:1"/>
   <stop offset="50%" style="stop-color: #fabd2f; stop-opacity:1"/>
   <stop offset="100%" style="stop-color: #458588; stop-opacity:1"/>
  </linearGradient>
  <linearGradient id="cyberneon" x1="0%" x2="0%" y1="0%" y2="100%">
    <stop offset="0" style="stop-color:#83a598; stop-opacity:1"/>
    <stop offset="1" style="stop-color:#b16286; stop-opacity:1"/>
  </linearGradient>
  <clipPath id="_clipPath_Pq8gi0UFH0yVcqOiKSjNhmu1ToEQ47bH">
   <rect width="16" height="16"/>
  </clipPath>
 </defs>
 <path style="fill:currentColor" class="ColorScheme-Text" d="M 11.825 0 C 11.649 0.006 11.512 0.154 11.515 0.33 C 11.519 0.503 11.661 0.641 11.835 0.639 L 11.844 0.639 C 11.886 0.634 13.007 0.634 14.16 1.817 C 15.32 3.006 15.348 4.142 15.348 4.153 C 15.348 4.329 15.491 4.472 15.667 4.472 C 15.844 4.472 15.987 4.329 15.987 4.153 C 15.987 4.096 15.972 2.765 14.619 1.378 C 13.258 -0.017 11.887 -0.003 11.825 0 Z M 11.835 1.917 C 11.66 1.917 11.518 2.062 11.515 2.236 C 11.513 2.411 11.66 2.552 11.835 2.556 C 11.856 2.556 12.355 2.577 12.882 3.105 C 13.41 3.632 13.432 4.135 13.432 4.153 C 13.432 4.329 13.575 4.472 13.751 4.472 C 13.927 4.472 14.07 4.329 14.07 4.153 C 14.07 4.121 14.065 3.369 13.342 2.645 C 12.618 1.922 11.866 1.917 11.835 1.917 Z M 9.19 1.927 C 8.832 1.924 8.486 2.056 8.221 2.296 L 0.396 10.151 C -0.112 10.66 -0.116 11.493 0.396 12.047 L 3.98 15.621 C 4.226 15.866 4.56 16.003 4.908 16 C 5.264 15.999 5.606 15.864 5.866 15.621 L 13.701 7.775 C 14.189 7.205 14.189 6.377 13.691 5.879 L 10.108 2.296 C 9.864 2.052 9.533 1.928 9.19 1.927 L 9.19 1.927 Z M 8.96 4.791 C 10.195 4.791 11.196 5.792 11.196 7.027 C 11.196 8.262 10.195 9.263 8.96 9.263 C 7.725 9.263 6.724 8.262 6.724 7.027 C 6.724 5.792 7.725 4.791 8.96 4.791 Z M 8.96 6.388 C 8.607 6.388 8.321 6.674 8.321 7.027 C 8.321 7.38 8.607 7.666 8.96 7.666 C 9.313 7.666 9.599 7.38 9.599 7.027 C 9.599 6.674 9.313 6.388 8.96 6.388 Z M 4.808 8.624 C 5.161 8.624 5.447 8.91 5.447 9.263 C 5.447 9.616 5.161 9.902 4.808 9.902 C 4.455 9.902 4.169 9.616 4.169 9.263 C 4.169 8.91 4.455 8.624 4.808 8.624 Z M 3.211 10.221 C 3.564 10.221 3.85 10.507 3.85 10.86 C 3.85 11.213 3.564 11.499 3.211 11.499 C 2.858 11.499 2.572 11.213 2.572 10.86 C 2.572 10.507 2.858 10.221 3.211 10.221 Z M 6.724 10.541 C 7.077 10.541 7.363 10.827 7.363 11.179 C 7.363 11.532 7.077 11.818 6.724 11.818 C 6.371 11.818 6.085 11.532 6.085 11.179 C 6.085 10.827 6.371 10.541 6.724 10.541 Z M 5.127 12.137 C 5.48 12.137 5.766 12.423 5.766 12.776 C 5.766 13.129 5.48 13.415 5.127 13.415 C 4.774 13.415 4.488 13.129 4.488 12.776 C 4.488 12.423 4.774 12.137 5.127 12.137 Z"/>
</svg>
